X:1
T:Title
%%score { ( 1 4 ) | ( 2 3 ) }
L:1/8
M:4/4
K:G
V:1 treble nm="Grand Piano"
V:4 treble 
V:2 bass 
V:3 bass 
V:1
 z4 z2[Q:1/4=100] [DB]>[CA] |[M:3/4] [B,G]2 [B,D]2 .[DG]2 | [CE]2 [EA]2 [^CG]2 | %3
 [DF]G [FA]B [Ac]d |[M:2/4] [ce]2 d2 |[M:1/4] [Bd]>[ce] |[M:3/4] [Bd]2 [Ac]2 [Ac]>d | %7
 [Ac]2 [GB]2 GB | [^CA]2 [EG]2 [CE]2 |[M:2/4] D4 |[M:1/4] [DB]>[CA] |[M:3/4] [B,G]2 [B,D]2 .[DG]2 | %12
 [CE]2 [EA]2 [^CG]2 | [DF]G [FA]B [Ac]d |[M:2/4] [ce]2 d2 |[M:1/4] [Gd][=Fd] | %16
[M:3/4] [Ee]2 [Gc]2 [ce]2 | [Bd]2 [GB]2 [DG]2 | EF G2 A2 | [B,G]4 z2 | z2 z2 [Fc]2 | BA B2 AB | %22
 [Ac]2 A2 [ce]2 | [Bd]c B2 dd | [Ee]2 [Gc]2 [Ge]2 | d2 B2 [DG]2 | EF G2 A2 |[M:2/4] [B,DG]4 |] %28
V:2
 z4 z2 G,,>G,, |[M:3/4] G,,2 G,,2 z F | C,2 C,2 A,,2 | z E z[K:treble] G z B |[M:2/4] z2 B2 | %5
[M:1/4][K:bass] G,>G, |[M:3/4] D,2 D,2 z z/[K:treble] B/ | G,2 G,2 B,G, | A,2 A,2 A,,2 | %9
[M:2/4] D,4 |[M:1/4] G,,>G,, |[M:3/4] G,,2 G,,2 z F | C,2 C,2 A,,2 | z E z[K:treble] G z B | %14
[M:2/4] z2 B2 |[M:1/4][K:bass] B,G, |[M:3/4] C,2 E,2 C,2 | G,2 G,2 B,,2 | [C,C]2 [D,B,]2 [D,C]2 | %19
 G,,4[K:treble] FG | A2 D2 [D,A,]2 | G[A,D] [G,B,D]2 FG | D,2 F2 [D,F,]2 | %23
 z[K:treble] [A,A] [G,B,G]2 [G,B,G][G,B,=F] | [C,C]2 [E,C]2 [C,C]2 | %25
 [G,B,G]2 [G,D]2[K:bass] [B,,G,]2 | [C,G,C]2 [D,B,D]2 [D,CD]2 |[M:2/4] G,,4 |] %28
V:3
 x8 |[M:3/4] z2 z2 B,,2 | x6 | D,2 D,2[K:treble] D,2 |[M:2/4] G,4 |[M:1/4][K:bass] x2 | %6
[M:3/4] z2 z2 F,2[K:treble] | x6 | x6 |[M:2/4] x4 |[M:1/4] x2 |[M:3/4] z2 z2 B,,2 | x6 | %13
 D,2 D,2[K:treble] D,2 |[M:2/4] G,4 |[M:1/4][K:bass] x2 |[M:3/4] x6 | x6 | x6 | x4[K:treble] x2 | %20
 x6 | G,2 z2 z2 | x6 | G,2[K:treble] z2 z2 | x6 | x4[K:bass] x2 | x6 |[M:2/4] x4 |] %28
V:4
 x8 |[M:3/4] x6 | x6 | x6 |[M:2/4] x4 |[M:1/4] x2 |[M:3/4] x6 | z2 z2 D2 | x6 |[M:2/4] x4 | %10
[M:1/4] x2 |[M:3/4] x6 | x6 | x6 |[M:2/4] x4 |[M:1/4] x2 |[M:3/4] x6 | x6 | x6 | x6 | x6 | x6 | %22
 x6 | x6 | x6 | x6 | x6 |[M:2/4] x4 |] %28

